X:1
T:Estrellita
T:Estrellita
%%score { 1 | 2 }
L:1/8
M:4/4
K:C
V:1 treble nm="Piano" snm="Pno."
V:2 bass 
V:1
 C2 C2 G2 G2 | A2 A2 G4 | F2 F2 E2 E2 | D2 D2 C4 | G2 G2 F2 F2 | E2 E2 D4 | G2 G2 F2 F2 | %7
 E2 E2 D4 | C2 C2 G2 G2 | A2 A2 G4 | F2 F2 E2 E2 | D2 D2 C4 |] %12
V:2
 C,4 G,,4 | C,4 C,4 | D,4 C,4 | G,4 C,4 | G,4 F,4 | E,4 G,4 | G,4 F,4 | E,4 G,4 | C,4 G,,4 | %9
 C,4 C,4 | D,4 C,4 | G,4 C,4 |] %12

